deploy/img/phone.svg

<svg width="24" height="24" xmlns="http://www.w3.org/2000/svg" fill-rule="evenodd" clip-rule="evenodd"><path d="M18 24h-12c-1.104 0-2-.896-2-2v-20c0-1.104.896-2 2-2h12c1.104 0 2 .896 2 2v20c0 1.104-.896 2-2 2zm1-5.083h-14v3.083c0 .552.449 1 1 1h12c.552 0 1-.448 1-1v-3.083zm-7 3c-.553 0-1-.448-1-1s.447-1 1-1c.552 0 .999.448.999 1s-.447 1-.999 1zm7-17h-14v13h14v-13zm-1-3.917h-12c-.551 0-1 .449-1 1v1.917h14v-1.917c0-.551-.448-1-1-1zm-4.5 1.917h-3c-.276 0-.5-.224-.5-.5s.224-.5.5-.5h3c.276 0 .5.224.5.5s-.224.5-.5.5z"/></svg>

<?xml version="1.0" encoding="utf-8"?>
<!-- Generator: Adobe Illustrator 25.4.1, SVG Export Plug-In . SVG Version: 6.00 Build 0)  -->
<svg version="1.1" id="Layer_1" xmlns="http://www.w3.org/2000/svg" xmlns:xlink="http://www.w3.org/1999/xlink" x="0px" y="0px"
	 viewBox="0 0 24 24" style="enable-background:new 0 0 24 24;" xml:space="preserve">
<style type="text/css">
	.st0{fill-rule:evenodd;clip-rule:evenodd;fill:#E2BA06;}
</style>
<path class="st0" d="M18,24H6c-1.1,0-2-0.9-2-2V2c0-1.1,0.9-2,2-2h12c1.1,0,2,0.9,2,2v20C20,23.1,19.1,24,18,24z M19,18.9H5V22
	c0,0.6,0.4,1,1,1h12c0.6,0,1-0.4,1-1V18.9z M12,21.9c-0.6,0-1-0.4-1-1s0.4-1,1-1c0.6,0,1,0.4,1,1S12.6,21.9,12,21.9z M19,4.9H5v13
	h14V4.9z M18,1H6C5.4,1,5,1.4,5,2v1.9h14V2C19,1.4,18.6,1,18,1z M13.5,2.9h-3c-0.3,0-0.5-0.2-0.5-0.5s0.2-0.5,0.5-0.5h3
	c0.3,0,0.5,0.2,0.5,0.5S13.8,2.9,13.5,2.9z"/>
</svg>
